X:1
T:Title
%%score { 1 | 2 }
L:1/8
Q:1/4=108
M:4/4
K:F
V:1 treble nm="Grand Piano"
V:2 bass 
V:1
 F3 G AGFG | A4 F4 | A3 [GB] [Ac][GB][FA][GB] | [Ac]6 z2 | [Fd]3 [F^c] [Fd][Fe][Ff][Fd] | c4 A4 | %6
w: S.~W.~Beazley * * * * *||||||
 F3 G AGFE | F6 z2 | [EG]3 [_E^F] [=EG][=FA][GB][GB] | [FA]4 [Fc]4 | %10
w: ||||
 [EG]3 [_E^F] [=EG][=FA][GB][GB] | [FA]6 z2 | [Fd]3 [F^c] [Fd][Fe][Ff][Fd] | [Fc]4 [Af]4 | %14
w: ||||
 F3 G AGFE | F6 z2 |] %16
w: ||
V:2
 [F,A,C]3 [F,B,C] [F,C][F,B,C][F,A,C][F,B,C] | [F,CF]4 [F,A,C]4 | %2
 [F,CF]3 [F,C] [F,C][F,C][F,C][F,C] | [F,C]6 z2 | [B,,B,]3 [B,,B,] [B,,B,][B,,C][B,,D][B,,B,] | %5
 [F,A,F]4 [F,CF]4 | [C,A,C]3 [C,B,C] [C,C][C,B,C][C,A,C][C,G,C] | [F,A,C]6 z2 | %8
 [C,C]3 [C,C] [C,C][C,C][C,C][C,C] | [F,C]4 [F,A,]4 | [C,C]3 [C,C] [C,C][C,C][C,C][C,C] | %11
 [F,C]6 z2 | [B,,B,]3 [B,,B,] [B,,B,][B,,C][B,,D][B,,B,] | [F,A,]4 [F,C]4 | %14
 [C,A,C]3 [C,B,C] [C,C][C,B,C][C,A,C][C,G,C] | [F,A,C]6 z2 |] %16

